packages/usa-icon/src/img/usa-icons/identification.svg

<svg xmlns="http://www.w3.org/2000/svg" height="24" viewBox="0 0 24 24" width="24"><path d="M11 14.14C11 13.38 9.33 13 8.5 13S6 13.38 6 14.14V15h5Z"/><circle cx="8.5" cy="10.5" r="1.5"/><path d="M20 4H4a2 2 0 0 0-2 2v12a2 2 0 0 0 2 2h16a2 2 0 0 0 2-2V6a2 2 0 0 0-2-2Zm-7 13H4V7h9Zm7 0h-5v-2h5Zm0-4h-5v-2h5Zm0-4h-5V7h5Z"/></svg>

<svg xmlns="http://www.w3.org/2000/svg" viewBox="0 0 24 24"><g id="Identification"><path d="M11,14.14C11,13.38,9.33,13,8.5,13S6,13.38,6,14.14V15h5Z"/><circle cx="8.5" cy="10.5" r="1.5"/><path d="M20,4H4A2,2,0,0,0,2,6V18a2,2,0,0,0,2,2H20a2,2,0,0,0,2-2V6A2,2,0,0,0,20,4ZM13,17H4V7h9Zm7,0H15V15h5Zm0-4H15V11h5Zm0-4H15V7h5Z"/></g></svg>
